X:1
T:Miss Grant's Jig --  Tombreackachy
T:Miss Grant's Jig --  Tombreackachy
T:William Marshall
C:William Marshall
%%score { 1 2 }
L:1/8
M:6/8
K:Bb
V:1 treble 
V:2 bass 
V:1
 d | B,2 B B2 F | BdB"^or"{G} [FB][EF]D | B,2 B B2 F | Gcc c2 d | B,2 B B2 F | BdB BFD | %7
 EGE DFD x5 :| Ccc c2 | d/e/ x5 | fdB BdB | FBB B2 d/e/ | fdB BdB | Gcc c2 d | fdB BAc | TBAG FED | %16
 EFG FED | Ccc c2 d/e/ | fdB BdB | FBB B2 d/e/ | fdB BdB | Gcc c2 d x6 | fga bag | fed cBA | %24
 BAG FED | Ccc c2 |] %26
V:2
 z | B,,3 B,,3 | B,,3 B,,3 | B,,3 B,,3 | C,3 C,3 | B,,3 B,,3 | B,,3 B,,3 | E,3 D,3 C,3 C,2 :| %8
 z x4 | [B,,B,]3 [B,,B,]3 | [B,,B,]3 [B,,B,]3 | [B,,B,]3 [B,,B,]3 | [C,C]3 [C,C]3 | B,3 F,3 | %14
 G,2 E, D,2 B,, | E,3 D,3 | C,3 C,3 | [B,,B,]3 [B,,B,]3 | [B,,B,]3 [B,,B,]3 | [B,,B,]3 [B,,B,]3 | %20
 [C,C]3 [C,C]3 | B,,3 E,3 D,3 F,3 | G,2 E, D,2 B,, | C,3 C,2 x | x6 | x5 |] %26

